X: 1
T: The Golden Keyboard
C: Martin Mulhaire
Z: 1999 John Chambers <jc:trillian.mit.edu>
M: C|
L: 1/8
K: EDor
|: "Em"BGEF GFGA | "(G)"~B2gB fBed | "Em"BGEF GBAG | "D"(3FED AD BDAF |
|  "Em"EDEF GFGA | "(G)"~B2gB fBec | "D"d2{ed}"A"ce "D"dBAF | "D"DFAF "Em"GE E2 :|
|: "Em"Be~e2 Be~e2 | "Em"Beef edBe | "D"dA~A2 "A"eAce | "D"d2{cd}"A"ce "D"dBAF |
|  "Em"EDEF GFGA | "(G)"~B2gB fBec | "D"d2{ed}"A"ce "D"dBAF | "D"DFAF "Em"GE E2 :|
